_site/images/homepage/logos/github-large.svg

<svg fill="none" height="32" viewBox="0 0 32 32" width="32" xmlns="http://www.w3.org/2000/svg"><g fill="#222123"><path d="m31.9994 16.5147c0 .6137-.033 1.2194-.0979 1.8158-.0071.0665-.0143.1336-.022.2001-.0409.3378-.0921.6729-.1524 1.004-.0117.0658-.0241.131-.037.1955-1.1232 5.7545-5.2027 10.4134-10.5467 12.2398-.8054.1596-1.0914-.3478-1.0914-.7819 0-.5366.0182-2.2906.0182-4.4701 0-1.5199-.5077-2.5112-1.0771-3.0165 2.7515-.3139 5.6118-1.2168 6.7466-4.5478.0228-.0652.0442-.1317.0649-.1988.0635-.2028.12-.4142.1705-.635.0149-.0658.0299-.1323.0435-.2001.1485-.7214.2289-1.5359.2289-2.4561 0-1.7779-.6167-3.2313-1.6354-4.3722.1653-.4103.7094-2.06718-.1556-4.31114 0 0-1.332-.43746-4.3649 1.6702-1.2697-.36105-2.6295-.54189-3.9796-.5485-1.3501.00661-2.7093.18752-3.977.5485-3.03553-2.10766-4.37007-1.6702-4.37007-1.6702-.86245 2.24396-.31837 3.90084-.15366 4.31114-1.01618 1.1409-1.6374 2.5943-1.6374 4.3722 0 .9195.08043 1.734.22956 2.4554.01359.0678.02786.1343.04282.2001.05058.2208.10768.4328.17122.6356.02073.0672.04283.1337.06486.1988 1.13415 3.3251 3.98677 4.2407 6.73047 4.5605-.4546.4069-.8664 1.1256-1.0091 2.1788-.9066.4162-3.20601 1.1356-4.62291-1.3544 0 0-.84042-1.5638-2.43561-1.6789 0 0-1.55051-.0206-.1083.9901 0 0 1.04081.5013 1.76382 2.3836 0 0 .93251 2.9075 5.3524 1.9222.0072 1.361.0215 2.6442.0215 3.0325 0 .4302-.2912.9348-1.0856.7839-5.34724-1.825-9.4313-6.4845-10.555082-12.2417v-.0007c-.012971-.0645-.025321-.1296-.036306-.1948-.060943-.3311-.112205-.6662-.15242-1.004-.00844-.0665-.015577-.133-.022714-.2001-.064791-.5964-.097869-1.2021-.097869-1.8158 0-8.9965 7.114331-16.289602 15.887391-16.289602 8.7738 0 15.8874 7.293102 15.8874 16.289602z"/><path d="m6.09854 23.3686c-.11475-.0558-.2393-.0326-.27362.0505-.03699.0812.02724.1915.14267.2447.11351.0559.23732.0319.27239-.0492.04015-.0811-.02601-.1928-.14144-.246z"/><path d="m6.83933 24.0117c-.10439-.113-.24774-.1469-.32551-.0751-.07714.0731-.05771.2254.04605.3385.10054.1137.24899.1476.32489.0757.07913-.0731.05833-.2241-.04543-.3391z"/><path d="m7.51394 24.8947c-.09985-.1436-.2568-.2061-.35474-.137-.09985.0698-.09985.2434-.0026.3883.09855.145.25742.2101.35536.1403.09923-.0705.09923-.2446.00198-.3916z"/><path d="m8.28037 25.7787c-.13684-.1336-.32358-.1609-.41177-.0625-.08688.0984-.04865.2853.09011.4163.13616.1343.32166.1609.40855.0624.09278-.0977.05064-.2851-.08689-.4162z"/><path d="m9.2954 26.3867c-.18159-.0578-.36119.0027-.39818.131-.03631.129.08105.2786.26065.3345.18029.0538.35858-.0041.3975-.1317.03705-.1296-.08031-.2779-.25997-.3338z"/><path d="m10.513 26.5802c-.19.0033-.3392.113-.3392.2487.002.1322.1557.2413.3456.2367.1888-.002.3418-.1137.3372-.248.0001-.133-.1549-.2414-.3436-.2374z"/><path d="m12.0644 26.6057c-.024-.1337-.1926-.2121-.38-.1789-.1848.0345-.3184.1695-.295.3038.0233.1297.1938.2108.3787.1762.1874-.0359.3184-.1701.2963-.3011z"/></g></svg>

<svg width="32" height="32" viewBox="0 0 32 32" fill="none" xmlns="http://www.w3.org/2000/svg">
<path d="M31.9994 16.5147C31.9994 17.1284 31.9664 17.7341 31.9015 18.3305C31.8944 18.397 31.8872 18.4641 31.8795 18.5306C31.8386 18.8684 31.7874 19.2035 31.7271 19.5346C31.7154 19.6004 31.703 19.6656 31.6901 19.7301C30.5669 25.4846 26.4874 30.1435 21.1434 31.9699C20.338 32.1295 20.052 31.6221 20.052 31.188C20.052 30.6514 20.0702 28.8974 20.0702 26.7179C20.0702 25.198 19.5625 24.2067 18.9931 23.7014C21.7446 23.3875 24.6049 22.4846 25.7397 19.1536C25.7625 19.0884 25.7839 19.0219 25.8046 18.9548C25.8681 18.752 25.9246 18.5406 25.9751 18.3198C25.99 18.254 26.005 18.1875 26.0186 18.1197C26.1671 17.3983 26.2475 16.5838 26.2475 15.6636C26.2475 13.8857 25.6308 12.4323 24.6121 11.2914C24.7774 10.8811 25.3215 9.22422 24.4565 6.98026C24.4565 6.98026 23.1245 6.5428 20.0916 8.65046C18.8219 8.28941 17.4621 8.10857 16.112 8.10196C14.7619 8.10857 13.4027 8.28948 12.135 8.65046C9.09947 6.5428 7.76493 6.98026 7.76493 6.98026C6.90248 9.22422 7.44656 10.8811 7.61127 11.2914C6.59509 12.4323 5.97387 13.8857 5.97387 15.6636C5.97387 16.5831 6.0543 17.3976 6.20343 18.119C6.21702 18.1868 6.23129 18.2533 6.24625 18.3191C6.29683 18.5399 6.35393 18.7519 6.41747 18.9547C6.4382 19.0219 6.4603 19.0884 6.48233 19.1535C7.61648 22.4786 10.4691 23.3942 13.2128 23.714C12.7582 24.1209 12.3464 24.8396 12.2037 25.8928C11.2971 26.309 8.99769 27.0284 7.58079 24.5384C7.58079 24.5384 6.74037 22.9746 5.14518 22.8595C5.14518 22.8595 3.59467 22.8389 5.03688 23.8496C5.03688 23.8496 6.07769 24.3509 6.8007 26.2332C6.8007 26.2332 7.73321 29.1407 12.1531 28.1554C12.1603 29.5164 12.1746 30.7996 12.1746 31.1879C12.1746 31.6181 11.8834 32.1227 11.089 31.9718C5.74176 30.1468 1.6577 25.4873 0.533918 19.7301V19.7294C0.520947 19.6649 0.508597 19.5998 0.497612 19.5346C0.436669 19.2035 0.385407 18.8684 0.345192 18.5306C0.336752 18.4641 0.329615 18.3976 0.322478 18.3305C0.257687 17.7341 0.224609 17.1284 0.224609 16.5147C0.224609 7.5182 7.33894 0.225098 16.112 0.225098C24.8858 0.225098 31.9994 7.5182 31.9994 16.5147Z" fill="#222123"/>
<path d="M6.09854 23.3686C5.98379 23.3128 5.85924 23.336 5.82492 23.4191C5.78793 23.5003 5.85216 23.6106 5.96759 23.6638C6.0811 23.7197 6.20491 23.6957 6.23998 23.6146C6.28013 23.5335 6.21397 23.4218 6.09854 23.3686Z" fill="#222123"/>
<path d="M6.83933 24.0117C6.73494 23.8987 6.59159 23.8648 6.51382 23.9366C6.43668 24.0097 6.45611 24.162 6.55987 24.2751C6.66041 24.3888 6.80886 24.4227 6.88476 24.3508C6.96389 24.2777 6.94309 24.1267 6.83933 24.0117Z" fill="#222123"/>
<path d="M7.51394 24.8947C7.41409 24.7511 7.25714 24.6886 7.1592 24.7577C7.05935 24.8275 7.05935 25.0011 7.1566 25.146C7.25515 25.291 7.41402 25.3561 7.51196 25.2863C7.61119 25.2158 7.61119 25.0417 7.51394 24.8947Z" fill="#222123"/>
<path d="M8.28037 25.7787C8.14353 25.6451 7.95679 25.6178 7.8686 25.7162C7.78172 25.8146 7.81995 26.0015 7.95871 26.1325C8.09487 26.2668 8.28037 26.2934 8.36726 26.1949C8.46004 26.0972 8.4179 25.9098 8.28037 25.7787Z" fill="#222123"/>
<path d="M9.2954 26.3867C9.11381 26.3289 8.93421 26.3894 8.89722 26.5177C8.86091 26.6467 8.97827 26.7963 9.15787 26.8522C9.33816 26.906 9.51645 26.8481 9.55537 26.7205C9.59242 26.5909 9.47506 26.4426 9.2954 26.3867Z" fill="#222123"/>
<path d="M10.513 26.5802C10.323 26.5835 10.1738 26.6932 10.1738 26.8289C10.1758 26.9611 10.3295 27.0702 10.5194 27.0656C10.7082 27.0636 10.8612 26.9519 10.8566 26.8176C10.8567 26.6846 10.7017 26.5762 10.513 26.5802Z" fill="#222123"/>
<path d="M12.0644 26.6057C12.0404 26.472 11.8718 26.3936 11.6844 26.4268C11.4996 26.4613 11.366 26.5963 11.3894 26.7306C11.4127 26.8603 11.5832 26.9414 11.7681 26.9068C11.9555 26.8709 12.0865 26.7367 12.0644 26.6057Z" fill="#222123"/>
</svg>
